X:11056
T:Molly Hogan Reel
C:Ward Allen
R:Reel
L:1/16
M:2/4
K:E
gf|e2ge bege|c2ec B2ec|A2cA B2ge|fgaf dfdf|
e2g2 bege|c2ec B2ec|A2cA B2g2|afdf e2:|
|:e2|B2Bd fBdf|e2ge bege|f2fg ^afg^a|b2b^a b=agf|
e2ge bege|c2ec B2ec|A2cA B2g2|afdf e2:|
